symbols/web/snowmobile/materialsymbolsrounded/snowmobile_wght500gradN25_48px.svg

<svg xmlns="http://www.w3.org/2000/svg" height="48" width="48"><path d="M47.15 36.35q-.7 1.5-2.075 2.4-1.375.9-3.025.9h-10q-.7 0-1.175-.475Q30.4 38.7 30.4 38q0-.7.475-1.175.475-.475 1.175-.475h4.7l-4.7-4.7H23.7q0 3.35-2.25 5.675-2.25 2.325-5.4 2.325h-12q-1.75 0-2.7-1.15Q.4 37.35.4 36q0-.9.475-1.775.475-.875 1.475-1.425l7.75-4.25-6.65-1.9q-1.2-.35-1.65-1.375-.45-1.025.1-2.175l1-2q.55-1.15 1.85-1.825t2.55-.525l14.85 1.6 6.7-4.95-2.1-1.9H24q-.7 0-1.15-.45-.45-.45-.45-1.1 0-.7.45-1.15.45-.45 1.15-.45h3.35q.35 0 .625.125t.525.275L42.3 23.6q.75.75 1.075 1.45.325.7.325 1.45 0 1.85-1.475 3.275Q40.75 31.2 38.5 31.55l-2.15.1 5.05 4.7h.55q.55 0 1.025-.225.475-.225.825-.675.45-.45.9-.775t.95-.325q.85 0 1.325.625t.175 1.375Zm-42.3 0h11.2q1.8 0 3.025-1.35 1.225-1.35 1.225-3.25l-5.8-1.8-9.85 5.25q-.15.1-.25.25t-.1.35q0 .2.175.375t.375.175Zm15.75-8h16.7q1.4 0 2.2-.475.8-.475.8-1.625l-9.15-8.55-8.05 6.1-16.9-1.9-1.05 2ZM22.75 23Z"/></svg>

<svg xmlns="http://www.w3.org/2000/svg" height="48" width="48"><path d="M47.15 36.35Q46.45 37.85 45.075 38.75Q43.7 39.65 42.05 39.65H32.05Q31.35 39.65 30.875 39.175Q30.4 38.7 30.4 38Q30.4 37.3 30.875 36.825Q31.35 36.35 32.05 36.35H36.75L32.05 31.65H23.7Q23.7 35 21.45 37.325Q19.2 39.65 16.05 39.65H4.05Q2.3 39.65 1.35 38.5Q0.4 37.35 0.4 36Q0.4 35.1 0.875 34.225Q1.35 33.35 2.35 32.8L10.1 28.55L3.45 26.65Q2.25 26.3 1.8 25.275Q1.35 24.25 1.9 23.1L2.9 21.1Q3.45 19.95 4.75 19.275Q6.05 18.6 7.3 18.75L22.15 20.35L28.85 15.4L26.75 13.5H24Q23.3 13.5 22.85 13.05Q22.4 12.6 22.4 11.95Q22.4 11.25 22.85 10.8Q23.3 10.35 24 10.35H27.35Q27.7 10.35 27.975 10.475Q28.25 10.6 28.5 10.75L42.3 23.6Q43.05 24.35 43.375 25.05Q43.7 25.75 43.7 26.5Q43.7 28.35 42.225 29.775Q40.75 31.2 38.5 31.55L36.35 31.65L41.4 36.35H41.95Q42.5 36.35 42.975 36.125Q43.45 35.9 43.8 35.45Q44.25 35 44.7 34.675Q45.15 34.35 45.65 34.35Q46.5 34.35 46.975 34.975Q47.45 35.6 47.15 36.35ZM4.85 36.35H16.05Q17.85 36.35 19.075 35Q20.3 33.65 20.3 31.75L14.5 29.95L4.65 35.2Q4.5 35.3 4.4 35.45Q4.3 35.6 4.3 35.8Q4.3 36 4.475 36.175Q4.65 36.35 4.85 36.35ZM20.6 28.35H37.3Q38.7 28.35 39.5 27.875Q40.3 27.4 40.3 26.25L31.15 17.7L23.1 23.8L6.2 21.9L5.15 23.9ZM22.75 23Q22.75 23 22.75 23Q22.75 23 22.75 23Z"/></svg>
